icons/shippable.svg

<?xml version="1.0" encoding="UTF-8"?>
<svg width="512px" height="118px" viewBox="0 0 512 118" version="1.1" xmlns="http://www.w3.org/2000/svg" xmlns:xlink="http://www.w3.org/1999/xlink" preserveAspectRatio="xMidYMid">
    <g>
        <path d="M0,69.013424 L17.9061856,69.013424 C18.0927085,72.5573566 19.3983678,75.1686753 21.8231638,76.8473803 C24.4344826,78.5260852 27.9784151,79.458699 32.2684388,79.458699 C35.4393259,79.458699 38.0506446,78.8991307 40.4754405,77.5934714 C42.527191,76.2878119 43.6463277,74.7956298 43.6463277,72.5573566 C43.6463277,69.3864696 39.9158723,66.9616736 32.6414844,65.4694915 C29.4705973,64.9099231 27.0458013,64.3503549 25.5536192,63.9773093 C16.2274808,61.7390361 10.0722295,58.9411945 6.9013424,55.7703075 C3.35740982,52.5994204 1.67870491,48.4959196 1.67870491,43.0867593 C1.67870491,36.3719396 4.29002366,30.9627794 9.32613838,26.486233 C14.5487759,22.3827321 21.4501183,20.5175044 29.8436428,20.5175044 C38.9832584,20.5175044 46.2576464,22.5692549 51.6668066,26.486233 C56.7029213,30.7762567 59.5007629,36.5584625 59.8738084,43.4598048 L48.6824423,43.4598048 C45.3250325,43.4598048 42.9002366,41.9676227 41.0350089,38.9832584 C40.2889178,38.2371673 39.5428268,37.6775991 38.9832584,36.931508 C36.931508,35.4393259 33.9471437,34.506712 30.4032112,34.506712 C26.8592785,34.506712 24.2479598,35.0662803 22.5692549,35.9988941 C21.0770728,37.1180307 20.1444589,38.6102129 20.1444589,40.6619634 C20.1444589,43.4598048 24.6210053,45.8846009 33.760621,47.7498286 C34.8797575,48.1228741 35.8123714,48.3093968 36.5584625,48.4959196 C37.3045535,48.6824423 38.0506446,48.6824423 38.7967357,48.6824423 C47.7498286,50.9207156 53.9050799,53.5320343 57.4490124,56.5163986 C60.8064222,59.6872856 62.4851272,63.7907865 62.4851272,69.1999467 C62.4851272,76.8473803 59.6872856,82.8161089 54.0916026,87.1061325 C48.8689652,91.0231106 41.0350089,92.8883383 30.4032112,92.8883383 C20.5175044,92.8883383 13.0565938,90.8365879 8.02047901,86.9196097 C2.98436428,82.8161089 0.373045535,77.033903 0.373045535,69.3864696 L0.373045535,69.013424 L0,69.013424 Z M109.115819,41.9676227 C106.5045,38.2371673 102.960568,36.3719396 98.2974986,36.3719396 C93.4479066,36.3719396 89.7174512,38.0506446 87.1061325,41.5945772 C84.4948137,45.1385098 83.1891544,49.9881018 83.1891544,55.9568303 L83.1891544,92.1422472 L65.2829687,92.1422472 L65.2829687,1.86522767 L74.2360615,1.86522767 C76.6608575,1.86522767 78.712608,2.79784151 80.5778357,4.47654643 C82.2565405,6.15525133 83.1891544,8.39352455 83.1891544,10.8183206 L83.1891544,31.5223478 C86.3600414,26.2997103 90.8365879,22.9423004 96.6187936,21.636641 C102.400999,20.3309817 107.81016,20.5175044 113.21932,22.7557776 C118.068912,24.8075281 122.172413,28.1649379 125.529823,32.6414844 C128.887232,37.1180307 130.565938,43.4598048 130.565938,51.4802838 L130.565938,92.1422472 L113.032797,92.1422472 L113.032797,55.9568303 C113.032797,53.3455115 112.846274,50.9207156 112.286707,48.6824423 C111.727138,46.6306919 110.608001,44.3924187 109.115819,41.9676227 Z M134.296393,22.3827321 L143.809054,22.3827321 C146.233849,22.3827321 148.2856,23.315346 150.150828,24.9940508 C151.829533,26.6727558 152.762147,28.911029 152.762147,31.335825 L152.762147,92.1422472 L134.482916,92.1422472 L134.482916,22.3827321 L134.296393,22.3827321 Z M174.585311,108.556251 C174.585311,110.981047 173.652697,113.032797 171.973991,114.898025 C170.295287,116.576729 168.057013,117.509343 165.632218,117.509343 L156.679125,117.509343 L156.679125,52.2263749 C156.679125,39.9158723 160.223058,31.7088705 167.497446,27.2323241 C174.585311,22.7557776 182.419267,20.5175044 190.812791,20.5175044 C195.102815,20.5175044 199.579361,21.2635955 204.055908,22.9423004 C208.532454,24.6210053 212.076387,27.0458013 214.687706,30.2166883 C219.910343,37.1180307 222.521662,45.6980781 222.521662,56.5163986 C222.521662,67.5212419 219.910343,76.4743348 214.687706,83.1891544 C209.465068,89.903974 202.750248,93.0748611 194.543246,93.0748611 C190.253223,93.0748611 186.336245,92.32877 182.978835,90.650065 C179.434902,88.9713602 176.637061,86.1735186 174.585311,82.4430633 L174.585311,108.556251 L174.585311,108.556251 Z M204.615477,57.0759669 C204.615477,50.1746245 203.309817,44.951987 200.698498,41.4080544 C198.087179,37.6775991 194.356724,35.8123714 189.507132,35.8123714 C184.844063,35.8123714 181.113607,37.6775991 178.502289,41.4080544 C176.077492,44.7654643 174.771834,49.9881018 174.771834,57.0759669 C174.771834,63.7907865 176.077492,68.6403785 178.688812,71.9977883 C181.30013,75.7282437 185.030586,77.5934714 189.880178,77.5934714 C194.356724,77.5934714 198.087179,75.7282437 200.698498,71.9977883 C203.309817,68.4538558 204.615477,63.417741 204.615477,57.0759669 Z M243.598735,108.556251 C243.598735,110.981047 242.66612,113.032797 240.987416,114.898025 C239.308711,116.576729 237.070438,117.509343 234.645641,117.509343 L225.692549,117.509343 L225.692549,52.2263749 C225.692549,39.9158723 229.236482,31.7088705 236.510869,27.2323241 C243.598735,22.7557776 251.432691,20.5175044 259.826216,20.5175044 C264.116239,20.5175044 268.592785,21.2635955 273.069332,22.9423004 C277.545878,24.6210053 281.089811,27.0458013 283.701129,30.2166883 C288.923767,37.1180307 291.535086,45.6980781 291.535086,56.5163986 C291.535086,67.5212419 288.923767,76.4743348 283.701129,83.1891544 C278.478493,89.903974 271.763672,93.0748611 263.556671,93.0748611 C259.266647,93.0748611 255.349669,92.32877 251.992259,90.650065 C248.448327,88.9713602 245.650485,86.1735186 243.598735,82.4430633 L243.598735,108.556251 L243.598735,108.556251 Z M273.442377,57.0759669 C273.442377,50.1746245 272.136718,44.951987 269.525399,41.4080544 C266.914081,37.6775991 263.183625,35.8123714 258.334033,35.8123714 C253.670964,35.8123714 249.940508,37.6775991 247.32919,41.4080544 C244.904394,44.7654643 243.598735,49.9881018 243.598735,57.0759669 C243.598735,63.7907865 244.904394,68.6403785 247.515713,71.9977883 C250.127031,75.7282437 253.857487,77.5934714 258.707079,77.5934714 C263.183625,77.5934714 266.914081,75.7282437 269.525399,71.9977883 C272.136718,68.4538558 273.442377,63.417741 273.442377,57.0759669 Z M339.098391,88.7848374 C335.367936,90.650065 331.450958,91.9557245 327.347457,92.32877 C323.243956,92.7018155 319.700023,93.0748611 316.529136,93.0748611 C310.187363,93.0748611 304.778202,91.3961561 299.928611,88.0387463 C295.265541,84.6813366 292.840746,78.8991307 292.840746,71.0651744 C292.840746,63.7907865 294.892496,58.3816263 299.182519,55.397262 C303.472543,52.2263749 308.881703,50.1746245 315.596522,49.0554879 C316.529136,49.0554879 317.461751,48.8689652 318.76741,48.6824423 C320.073069,48.4959196 321.378729,48.1228741 323.057433,47.9363513 C330.704867,46.8172147 334.621845,44.5789414 334.621845,41.0350089 C334.621845,38.4236901 333.316186,36.7449852 330.518344,35.9988941 C327.720503,35.252803 325.295707,34.8797575 323.057433,34.8797575 C320.632637,34.8797575 318.394365,35.252803 316.529136,35.9988941 C314.663909,36.7449852 313.171727,38.0506446 312.239113,39.9158723 L294.705973,39.9158723 C295.452064,34.506712 297.87686,30.0301656 301.980361,26.486233 C306.64343,22.3827321 313.35825,20.5175044 322.12482,20.5175044 C331.824004,20.5175044 339.284914,22.1962094 344.134507,25.5536192 C349.170621,29.0975517 351.78194,33.9471437 351.78194,40.2889178 L351.78194,64.1638321 C351.78194,71.2516972 350.47628,76.6608575 348.051485,80.5778357 C345.626688,84.1217682 342.642324,86.9196097 339.098391,88.7848374 Z M334.99489,56.5163986 C332.570095,57.8220579 329.212685,58.9411945 324.736138,59.8738084 L318.76741,61.1794678 C315.596522,62.1120817 313.35825,63.2312183 311.866067,64.5368776 C310.560408,66.4021053 310.00084,68.4538558 310.00084,70.3190834 C310.00084,72.9304021 310.746931,74.9821526 312.425635,76.6608575 C313.917818,78.1530396 316.342614,78.712608 319.326978,78.712608 C324.17657,78.712608 328.093548,77.4069485 330.891389,74.4225843 C333.689232,71.6247428 335.181413,67.7077647 335.181413,62.8581727 L335.181413,56.5163986 L334.99489,56.5163986 Z M374.164672,8.95309284 L374.164672,30.0301656 C376.029899,26.6727558 378.827741,24.061437 382.558196,21.8231638 C385.729083,20.1444589 389.459538,19.2118451 394.122608,19.2118451 C402.32961,19.2118451 409.044429,22.5692549 414.267067,29.4705973 C419.489704,36.3719396 422.101024,45.1385098 422.101024,55.9568303 C422.101024,66.7751508 419.489704,75.5417209 414.267067,82.4430633 C411.655748,85.8004731 408.111815,88.2252691 403.63527,89.7174512 C399.158723,91.2096334 394.682176,91.9557245 390.392152,91.9557245 C381.998628,91.9557245 374.164672,89.7174512 367.076807,85.4274276 C359.988941,81.1374039 356.258486,72.7438794 356.258486,60.246854 L356.258486,0 L365.211579,0 C367.636375,0 369.688126,0.932613838 371.553353,2.61131874 C373.232058,4.29002366 374.164672,6.52829687 374.164672,8.95309284 Z M404.008315,55.0242165 C404.008315,48.6824423 402.702655,43.8328504 400.091337,40.2889178 C397.480018,36.5584625 393.936085,34.6932348 389.273017,34.6932348 C384.423424,34.6932348 380.692969,36.3719396 378.08165,39.9158723 C375.470331,43.6463277 374.164672,48.4959196 374.164672,54.8376936 C374.164672,62.1120817 375.470331,67.5212419 377.895128,70.8786517 C380.506446,74.6091071 384.236901,76.4743348 388.899971,76.4743348 C393.749562,76.4743348 397.480018,74.6091071 400.091337,70.8786517 C402.702655,67.3347192 404.008315,62.1120817 404.008315,55.0242165 Z M425.27191,1.86522767 L434.784571,1.86522767 C437.209368,1.86522767 439.261118,2.61131874 441.126345,4.29002366 C442.80505,5.96872856 443.737664,8.02047901 443.737664,10.445275 L443.737664,92.1422472 L425.458433,92.1422472 L425.458433,1.86522767 L425.27191,1.86522767 Z M497.829267,70.5056062 L510.885861,70.5056062 C509.020633,77.7799941 505.290177,83.3756771 499.881018,87.2926552 C494.471857,91.3961561 487.570515,93.2613838 479.363513,93.2613838 C469.477806,93.2613838 461.64385,90.0904968 456.048166,83.5621999 C450.452484,77.2204258 447.654643,68.267333 447.654643,56.5163986 C447.654643,45.3250325 450.452484,36.5584625 455.861644,30.2166883 C461.457327,23.6883915 469.291284,20.5175044 479.17699,20.5175044 C489.622265,20.5175044 497.829267,23.6883915 503.611473,30.0301656 C509.207156,36.5584625 512.004997,45.5115553 512.004997,57.0759669 L512.004997,58.9411945 L512.004997,60.0603312 C512.004997,60.992945 512.004997,61.5525133 511.818474,61.9255588 L466.493442,61.9255588 C466.679965,67.3347192 467.985624,71.43822 470.41042,74.0495387 C472.648693,76.8473803 476.006103,78.3395624 480.669172,78.3395624 C483.653537,78.3395624 486.264855,77.7799941 488.316606,76.4743348 C488.876174,76.2878119 489.249219,75.9147664 489.808788,75.5417209 C490.181833,75.1686753 490.741402,74.6091071 491.30097,74.0495387 C491.487493,73.4899705 492.047061,72.7438794 493.35272,71.9977883 C494.098811,70.8786517 495.777517,70.5056062 497.829267,70.5056062 Z M466.306919,49.9881018 L492.979674,49.9881018 C492.60663,45.3250325 491.487493,41.7811 489.249219,39.5428268 C487.010946,37.1180307 483.653537,35.8123714 479.550036,35.8123714 C475.633057,35.8123714 472.46217,37.1180307 470.037375,39.5428268 C467.799101,41.9676227 466.493442,45.5115553 466.306919,49.9881018 Z" fill="#000000"></path>
        <path d="M134.296393,1.86522767 L143.809054,1.86522767 C146.233849,1.86522767 148.2856,2.79784151 150.150828,4.47654643 C151.829533,6.15525133 152.762147,8.39352455 152.762147,10.8183206 L152.762147,16.4140036 L134.482916,16.4140036 L134.482916,1.86522767 L134.296393,1.86522767 Z" fill="#238189"></path>
    </g>
</svg>

<svg xmlns="http://www.w3.org/2000/svg" viewBox="0 0 512.005 117.509">
  <path d="M0 69.013h17.906c.187 3.544 1.492 6.156 3.917 7.834 2.611 1.68 6.155 2.612 10.445 2.612 3.171 0 5.783-.56 8.207-1.866 2.052-1.305 3.171-2.797 3.171-5.036 0-3.17-3.73-5.595-11.005-7.088-3.17-.56-5.595-1.119-7.087-1.492C16.227 61.74 10.072 58.941 6.9 55.77 3.357 52.6 1.68 48.496 1.68 43.087c0-6.715 2.611-12.124 7.647-16.6 5.223-4.104 12.124-5.97 20.518-5.97 9.14 0 16.414 2.052 21.823 5.97 5.036 4.29 7.834 10.071 8.207 16.973H48.682c-3.357 0-5.782-1.492-7.647-4.477-.746-.746-1.492-1.305-2.052-2.051-2.051-1.493-5.036-2.425-8.58-2.425-3.544 0-6.155.56-7.834 1.492-1.492 1.119-2.425 2.611-2.425 4.663 0 2.798 4.477 5.223 13.617 7.088 1.119.373 2.051.56 2.797.746.747.186 1.493.186 2.239.186 8.953 2.239 15.108 4.85 18.652 7.834 3.357 3.171 5.036 7.275 5.036 12.684 0 7.647-2.798 13.616-8.393 17.906-5.223 3.917-13.057 5.782-23.689 5.782-9.885 0-17.346-2.051-22.383-5.968C2.984 82.816.373 77.034.373 69.386v-.373zm109.116-27.045c-2.612-3.73-6.155-5.596-10.819-5.596-4.85 0-8.58 1.679-11.19 5.223-2.612 3.544-3.918 8.393-3.918 14.362v36.185H65.283V1.865h8.953c2.425 0 4.477.933 6.342 2.612 1.679 1.678 2.611 3.917 2.611 6.341v20.704c3.171-5.222 7.648-8.58 13.43-9.885 5.782-1.306 11.191-1.12 16.6 1.119 4.85 2.052 8.953 5.409 12.31 9.885 3.358 4.477 5.037 10.819 5.037 18.84v40.661h-17.533V55.957c0-2.611-.187-5.036-.746-7.275-.56-2.051-1.679-4.29-3.171-6.714zm25.18-19.585h9.513c2.425 0 4.477.932 6.342 2.611 1.679 1.679 2.611 3.917 2.611 6.342v60.806h-18.28v-69.76zm40.29 86.173c0 2.425-.933 4.477-2.612 6.342-1.679 1.679-3.917 2.611-6.342 2.611h-8.953V52.226c0-12.31 3.544-20.517 10.818-24.994 7.088-4.476 14.922-6.714 23.316-6.714 4.29 0 8.766.746 13.243 2.424 4.476 1.679 8.02 4.104 10.632 7.275 5.222 6.901 7.834 15.481 7.834 26.3 0 11.004-2.612 19.957-7.834 26.672-5.223 6.715-11.938 9.886-20.145 9.886-4.29 0-8.207-.746-11.564-2.425-3.544-1.679-6.342-4.476-8.394-8.207zm30.03-51.48c0-6.901-1.306-12.124-3.918-15.668-2.61-3.73-6.341-5.596-11.19-5.596-4.664 0-8.394 1.866-11.006 5.596-2.425 3.357-3.73 8.58-3.73 15.668 0 6.715 1.305 11.564 3.917 14.922 2.611 3.73 6.342 5.595 11.191 5.595 4.477 0 8.207-1.865 10.819-5.595 2.61-3.544 3.916-8.58 3.916-14.922zm38.983 51.48c0 2.425-.933 4.477-2.612 6.342-1.678 1.679-3.917 2.611-6.341 2.611h-8.953V52.226c0-12.31 3.543-20.517 10.818-24.994 7.088-4.476 14.922-6.714 23.315-6.714 4.29 0 8.767.746 13.243 2.424 4.477 1.679 8.02 4.104 10.632 7.275 5.223 6.901 7.834 15.481 7.834 26.3 0 11.004-2.611 19.957-7.834 26.672-5.223 6.715-11.937 9.886-20.144 9.886-4.29 0-8.207-.746-11.565-2.425-3.544-1.679-6.342-4.476-8.393-8.207zm29.843-51.48c0-6.901-1.305-12.124-3.917-15.668-2.61-3.73-6.341-5.596-11.191-5.596-4.663 0-8.393 1.866-11.005 5.596-2.425 3.357-3.73 8.58-3.73 15.668 0 6.715 1.305 11.564 3.917 14.922 2.611 3.73 6.341 5.595 11.191 5.595 4.477 0 8.207-1.865 10.818-5.595 2.612-3.544 3.917-8.58 3.917-14.922zm65.656 31.709c-3.73 1.865-7.647 3.17-11.75 3.544-4.104.373-7.648.746-10.819.746-6.342 0-11.75-1.679-16.6-5.036-4.663-3.358-7.088-9.14-7.088-16.974 0-7.274 2.052-12.683 6.342-15.668 4.29-3.17 9.699-5.222 16.414-6.342.932 0 1.865-.186 3.17-.373 1.306-.186 2.612-.56 4.29-.746 7.648-1.119 11.565-3.357 11.565-6.901 0-2.611-1.306-4.29-4.104-5.036-2.797-.746-5.222-1.12-7.46-1.12-2.425 0-4.664.374-6.529 1.12-1.865.746-3.357 2.052-4.29 3.917h-17.533c.746-5.41 3.17-9.886 7.274-13.43 4.663-4.103 11.378-5.968 20.145-5.968 9.699 0 17.16 1.678 22.01 5.036 5.036 3.544 7.647 8.393 7.647 14.735v23.875c0 7.088-1.306 12.497-3.73 16.414-2.425 3.544-5.41 6.342-8.954 8.207zm-4.103-32.269c-2.425 1.306-5.782 2.425-10.259 3.358l-5.969 1.305c-3.17.933-5.409 2.052-6.9 3.358-1.307 1.865-1.866 3.917-1.866 5.782 0 2.611.746 4.663 2.425 6.342 1.492 1.492 3.917 2.052 6.901 2.052 4.85 0 8.767-1.306 11.564-4.29 2.798-2.798 4.29-6.715 4.29-11.565v-6.342zm39.17-47.563V30.03c1.865-3.357 4.663-5.969 8.393-8.207 3.171-1.679 6.902-2.611 11.565-2.611 8.207 0 14.921 3.357 20.144 10.259 5.223 6.9 7.834 15.668 7.834 26.486 0 10.818-2.611 19.585-7.834 26.486-2.611 3.357-6.155 5.782-10.632 7.274-4.476 1.493-8.953 2.239-13.243 2.239-8.393 0-16.227-2.239-23.315-6.529-7.088-4.29-10.819-12.683-10.819-25.18V0h8.954c2.424 0 4.476.933 6.341 2.611 1.68 1.679 2.612 3.917 2.612 6.342zm29.843 46.071c0-6.342-1.305-11.191-3.917-14.735-2.611-3.73-6.155-5.596-10.818-5.596-4.85 0-8.58 1.679-11.191 5.223-2.612 3.73-3.917 8.58-3.917 14.922 0 7.274 1.305 12.683 3.73 16.04 2.611 3.731 6.342 5.596 11.005 5.596 4.85 0 8.58-1.865 11.191-5.595 2.612-3.544 3.917-8.767 3.917-15.855zm21.264-53.159h9.513c2.424 0 4.476.746 6.341 2.425 1.68 1.679 2.612 3.73 2.612 6.155v81.697h-18.28V1.865zm72.557 68.64h13.057c-1.865 7.275-5.596 12.87-11.005 16.788-5.41 4.103-12.31 5.968-20.517 5.968-9.886 0-17.72-3.17-23.316-9.699-5.596-6.342-8.393-15.295-8.393-27.046 0-11.191 2.797-19.958 8.207-26.3 5.595-6.528 13.43-9.698 23.315-9.698 10.445 0 18.652 3.17 24.434 9.512 5.596 6.528 8.394 15.482 8.394 27.046V60.061c0 .932 0 1.492-.187 1.865h-45.325c.187 5.409 1.493 9.512 3.917 12.124 2.239 2.797 5.596 4.29 10.26 4.29 2.984 0 5.595-.56 7.647-1.866.56-.186.932-.56 1.492-.932l1.492-1.492c.186-.56.746-1.306 2.052-2.052.746-1.12 2.425-1.492 4.476-1.492zm-31.522-20.517h26.673c-.373-4.663-1.493-8.207-3.73-10.445-2.24-2.425-5.596-3.73-9.7-3.73-3.917 0-7.088 1.305-9.513 3.73-2.238 2.425-3.544 5.969-3.73 10.445z"/>
  <path fill="#238189" d="M134.296 1.865h9.513c2.425 0 4.477.933 6.342 2.612 1.679 1.678 2.611 3.917 2.611 6.341v5.596h-18.28V1.865z"/>
</svg>
